svg/UnitedNations-Flags/flag-saba.svg

<?xml version="1.0" encoding="UTF-8" standalone="no"?>
<!-- Created with Inkscape (http://www.inkscape.org/) --><svg height="256" id="svg2" inkscape:output_extension="org.inkscape.output.svg.inkscape" inkscape:version="0.46" sodipodi:docbase="C:\Documents and Settings\David Nelson\Archives\Svg" sodipodi:docname="Flag_of_Saba.svg" sodipodi:version="0.32" version="1.0" width="256" xmlns="http://www.w3.org/2000/svg" xmlns:cc="http://creativecommons.org/ns#" xmlns:dc="http://purl.org/dc/elements/1.1/" xmlns:inkscape="http://www.inkscape.org/namespaces/inkscape" xmlns:rdf="http://www.w3.org/1999/02/22-rdf-syntax-ns#" xmlns:sodipodi="http://sodipodi.sourceforge.net/DTD/sodipodi-0.dtd" xmlns:svg="http://www.w3.org/2000/svg">
  <metadata>
    <rdf:RDF xmlns:cc="http://web.resource.org/cc/" xmlns:dc="http://purl.org/dc/elements/1.1/" xmlns:rdf="http://www.w3.org/1999/02/22-rdf-syntax-ns#">
      <cc:Work rdf:about="">
        <dc:title></dc:title>
        <dc:description></dc:description>
        <dc:subject>
          <rdf:Bag>
            <rdf:li>unsorted</rdf:li>
          </rdf:Bag>
        </dc:subject>
        <dc:publisher>
          <cc:Agent rdf:about="http://www.openclipart.org/">
            <dc:title>Open Clip Art Library, Source: Wikimedia Commons, Source: Wikimedia Commons, Source: Wikimedia Commons, Source: Wikimedia Commons</dc:title>
          </cc:Agent>
        </dc:publisher>
        <dc:creator>
          <cc:Agent>
            <dc:title></dc:title>
          </cc:Agent>
        </dc:creator>
        <dc:rights>
          <cc:Agent>
            <dc:title></dc:title>
          </cc:Agent>
        </dc:rights>
        <dc:date></dc:date>
        <dc:format>image/svg+xml</dc:format>
        <dc:type rdf:resource="http://purl.org/dc/dcmitype/StillImage"/>
        <cc:license rdf:resource="http://en.wikipedia.org/wiki/Public_domain"/>
        <dc:language>en</dc:language>
      </cc:Work>
    </rdf:RDF>
  </metadata>
  <defs id="defs4">
    <inkscape:perspective id="perspective3336" inkscape:persp3d-origin="375 : 166.66667 : 1" inkscape:vp_x="0 : 250 : 1" inkscape:vp_y="0 : 1000 : 0" inkscape:vp_z="750 : 250 : 1" sodipodi:type="inkscape:persp3d"/>
  </defs>
  <sodipodi:namedview bordercolor="#666666" borderopacity="1.0" gridtolerance="10px" id="base" inkscape:current-layer="layer1" inkscape:cx="375" inkscape:cy="250" inkscape:document-units="px" inkscape:grid-bbox="true" inkscape:grid-points="true" inkscape:pageopacity="0.0" inkscape:pageshadow="2" inkscape:window-height="775" inkscape:window-width="867" inkscape:window-x="44" inkscape:window-y="60" inkscape:zoom="0.746" pagecolor="#ffffff" showgrid="true">
    <inkscape:grid color="#0000ff" empcolor="#0000ff" empopacity="0.4" empspacing="5" enabled="true" id="GridFromPre046Settings" opacity="0.2" originx="0px" originy="0px" spacingx="25px" spacingy="25px" type="xygrid" visible="true"/>
  </sodipodi:namedview>
  <g id="layer1" inkscape:groupmode="layer" inkscape:label="Layer 1">
    <g id="g2480" transform="matrix(0.6666667,0,0,0.6666667,0,42.333325)">
      <rect height="256" id="rect1594" style="opacity:1;fill:#dc171d;fill-opacity:1;fill-rule:evenodd;stroke:none;stroke-width:3;stroke-linecap:square;stroke-linejoin:bevel;stroke-miterlimit:4;stroke-dasharray:none;stroke-dashoffset:0.99999998;stroke-opacity:1" width="384" x="0" y="0"/>
      <rect height="128" id="rect1592" style="opacity:1;fill:#012a87;fill-opacity:1;fill-rule:evenodd;stroke:none;stroke-width:3;stroke-linecap:square;stroke-linejoin:bevel;stroke-miterlimit:4;stroke-dasharray:none;stroke-dashoffset:0.99999998;stroke-opacity:1" width="384" x="0" y="128"/>
      <path d="M 0,128 L 192,0 L 384,128 L 192,256 L 0,128 z" id="path1605" style="fill:#ffffff;fill-opacity:1;fill-rule:evenodd;stroke:none;stroke-width:1px;stroke-linecap:butt;stroke-linejoin:miter;stroke-opacity:1"/>
      <path d="M 192,55.556915 L 208.26593,105.61186 L 260.89747,105.61386 L 218.31883,136.55151 L 234.58098,186.60769 L 192,155.67326 L 149.41902,186.60769 L 165.68117,136.55151 L 123.10253,105.61385 L 175.73407,105.61186 L 192,55.556915 z" id="path1602" inkscape:flatsided="false" inkscape:randomized="0" inkscape:rounded="0" sodipodi:arg1="-1.5707963" sodipodi:arg2="-0.94247777" sodipodi:cx="192" sodipodi:cy="128" sodipodi:r1="72.443085" sodipodi:r2="27.673258" sodipodi:sides="5" sodipodi:type="star" style="opacity:1;fill:#f9d90f;fill-opacity:1;fill-rule:evenodd;stroke:none;stroke-width:3;stroke-linecap:square;stroke-linejoin:bevel;stroke-miterlimit:4;stroke-dasharray:none;stroke-dashoffset:0.99999998;stroke-opacity:1"/>
    </g>
  </g>
</svg>

<svg xmlns="http://www.w3.org/2000/svg" viewBox="0 0 256 256"><g transform="matrix(.66667 0 0 .66667 0 42.33)" fill-rule="evenodd"><path fill="#dc171d" d="m0 0h384v256h-384z"/><path fill="#012a87" d="m0 128h384v128h-384z"/><path d="m0 128l192-128 192 128-192 128-192-128" fill="#fff"/><path d="m192 55.56l16.266 50.05 52.632.002-42.579 30.938 16.262 50.06-42.581-30.934-42.581 30.934 16.262-50.06-42.579-30.938 52.632-.002 16.266-50.05" fill="#f9d90f"/></g></svg>
